X: 1
T: Bulgarian, The
M: 2/4
L: 1/8
R: polka
K: Amin
|:Ae ce|Ae ce|G>A Bc|dc BG|Ae ce|Ae ce|d>c BG|A2 E2:|
|:A>B cd|e/f/ e2 e|g c2 c|d4|e>f ed|c/B/ A2 c|de/d/ cB|A2 E2:|
